X:498
T:B498-  Wert Thou More Fairer Than Thou Art
S:(2nd/4)
Q:1/4=120
L:1/4
M:3/4
K:Gm
ddd|d3/2(c/ B/A/|B)A3/2G/|G3|\
ggg|(f3/2e/) (d/c/)|dc3/2B/|B3|\
(d/e/)f(g/f/)|e2d|d3/2(e/ d/c/)|c3|\
c=Bc|(c3/2B/ A/G/|A/)B/G3/2F/|F3|\
":s:"ffg|e2f|d3/2(e/ d/c/)|c3|\
Bcd|A2(B/A/|B)A3/2G/|G3|]
